X: 1
T: les Enfants du Pauvre Homme   [Dm]
C: Ludovic and Michel
R: waltz
S: handout at NEFFA 2016 from Mark Vidor p.15 #2
Z: 2016 John Chambers <jc:trillian.mit.edu>
M: 3/4
L: 1/8
K: Dm
D2 |\
"Dm"kF4 F2 | "A7"E4 E2 | "Dm"D^C D2 E2 | "Gm"F2 E2 D2 |\
"Dm"kF4 F2 | "A7"E4 D2 | "Dm"^CD F2 E2 | "Gm"D2 z2 :|
|: D2 |\
"Dm"A,4 D2 | "A7/C#"^C4 C2 | "Gm/Bb"D^C D2 E2 | "A7/C#"F2 E2 D2 |\
"Dm"A,4 D2 | "A7/C#"^C4 C2 | "Gm/Bb"DE F2 "/C"E2 | "Dm"D2 z2 :| 
